assets/icons/24px/outline/cursor-default-24px.svg

<svg width="24" height="24" viewBox="0 0 24 24" fill="none" xmlns="http://www.w3.org/2000/svg">
<path d="M11.5036 6.22384L18.7638 9.4506C19.7138 9.8728 20.1888 10.0839 20.1786 10.4196C20.1685 10.7552 19.6816 10.9372 18.7078 11.3011L18.5886 11.3457C17.2074 11.8619 16.5169 12.1199 16.4119 12.6731C16.3069 13.2262 16.8549 13.7194 17.9508 14.7057L18.9331 15.5898C19.6683 16.2515 20.0359 16.5824 20.0472 17.0119C20.0585 17.4415 19.7088 17.7912 19.0094 18.4906L18.4906 19.0094C17.7912 19.7088 17.4415 20.0585 17.0119 20.0472C16.5824 20.0359 16.2515 19.6683 15.5898 18.9331L14.7057 17.9508C13.7194 16.8549 13.2262 16.3069 12.6731 16.4119C12.1199 16.5169 11.8619 17.2074 11.3457 18.5886L11.3011 18.7078C10.9372 19.6816 10.7552 20.1685 10.4196 20.1786C10.0839 20.1888 9.8728 19.7138 9.4506 18.7638L6.22384 11.5036C4.44398 7.49895 3.55405 5.49661 4.52533 4.52533C5.49661 3.55405 7.49895 4.44398 11.5036 6.22384Z" stroke="white" stroke-width="2" stroke-linecap="round" stroke-linejoin="round"/>
</svg>

<svg width="24" height="24" fill="none" xmlns="http://www.w3.org/2000/svg"><path d="M11.504 6.224l7.26 3.227c.95.422 1.425.633 1.415.969-.01.335-.497.517-1.471.881l-.12.045c-1.38.516-2.071.774-2.176 1.327-.105.553.443 1.046 1.539 2.033l.982.884c.735.662 1.103.992 1.114 1.422.011.43-.338.78-1.038 1.479l-.518.518c-.7.7-1.05 1.05-1.48 1.038-.429-.011-.76-.379-1.421-1.114l-.884-.982c-.987-1.096-1.48-1.644-2.033-1.54-.553.106-.811.796-1.327 2.178l-.045.119c-.364.974-.546 1.46-.881 1.47-.336.01-.547-.464-.97-1.414l-3.226-7.26c-1.78-4.005-2.67-6.007-1.699-6.979.972-.971 2.974-.081 6.979 1.699z" stroke="#fff" stroke-width="2" stroke-linecap="round" stroke-linejoin="round"/></svg>
